fs/accessibility_checkmark_20_regular.svg

<svg viewBox="0 0 20 20" fill="none" xmlns="http://www.w3.org/2000/svg" height="1em" width="1em">
  <path d="M8.50006 4.49805C8.50006 3.66962 9.17164 2.99805 10.0001 2.99805C10.8285 2.99805 11.5001 3.66962 11.5001 4.49805C11.5001 5.32647 10.8285 5.99805 10.0001 5.99805C9.17164 5.99805 8.50006 5.32647 8.50006 4.49805ZM10.0001 1.99805C8.61935 1.99805 7.50007 3.11734 7.50007 4.49805C7.50007 4.69992 7.52399 4.89621 7.56917 5.08423L5.4719 4.15047C4.59026 3.75794 3.55353 4.15156 3.15457 5.0303C2.75442 5.91164 3.1474 6.94669 4.03165 7.34038L6.99998 8.66196L6.99997 10.9489L5.12327 15.5939C4.76122 16.4901 5.19416 17.51 6.09028 17.8721C6.9864 18.2341 8.00636 17.8012 8.36842 16.9051L8.45434 16.6924C8.23479 16.1878 8.08871 15.6439 8.02961 15.0742L7.44123 16.5305C7.28607 16.9145 6.84894 17.1001 6.46489 16.9449C6.08084 16.7897 5.89529 16.3526 6.05046 15.9685L7.92716 11.3235C7.97525 11.2045 7.99997 11.0773 7.99997 10.9489V8.66196C7.99997 8.26701 7.76752 7.90906 7.40671 7.74842L4.43839 6.42683C4.06129 6.25894 3.89447 5.81956 4.06511 5.4437C4.23694 5.06524 4.68545 4.89495 5.06516 5.06401L8.98313 6.8084C9.6304 7.09659 10.3695 7.09659 11.0168 6.8084L14.9348 5.06401C15.3145 4.89495 15.763 5.06524 15.9348 5.4437C16.1055 5.81956 15.9387 6.25894 15.5616 6.42683L12.5932 7.74842C12.2324 7.90906 12 8.26701 12 8.66196V9.20704C12.3223 9.11588 12.6566 9.05337 13 9.02242V8.66196L15.9683 7.34038C16.8525 6.94669 17.2455 5.91164 16.8454 5.0303C16.4464 4.15156 15.4097 3.75794 14.5281 4.15047L12.431 5.08414C12.4761 4.89615 12.5001 4.69989 12.5001 4.49805C12.5001 3.11734 11.3808 1.99805 10.0001 1.99805ZM18 14.5C18 16.9853 15.9853 19 13.5 19C11.0147 19 9 16.9853 9 14.5C9 12.0147 11.0147 10 13.5 10C15.9853 10 18 12.0147 18 14.5ZM15.8536 12.6464C15.6583 12.4512 15.3417 12.4512 15.1464 12.6464L12.5 15.2929L11.8536 14.6464C11.6583 14.4512 11.3417 14.4512 11.1464 14.6464C10.9512 14.8417 10.9512 15.1583 11.1464 15.3536L12.1464 16.3536C12.3417 16.5488 12.6583 16.5488 12.8536 16.3536L15.8536 13.3536C16.0488 13.1583 16.0488 12.8417 15.8536 12.6464Z" fill="#212121"/>
</svg>

<svg viewBox="0 0 20 20" fill="none" xmlns="http://www.w3.org/2000/svg" height="1em" width="1em">
  <path d="M8.5 4.498a1.5 1.5 0 1 1 3 0 1.5 1.5 0 0 1-3 0Zm1.5-2.5a2.5 2.5 0 0 0-2.43 3.086L5.471 4.15a1.761 1.761 0 0 0-2.317.88c-.4.882-.008 1.917.877 2.31L7 8.662v2.287l-1.877 4.645a1.75 1.75 0 0 0 3.245 1.311l.086-.213a5.465 5.465 0 0 1-.424-1.618l-.589 1.457a.75.75 0 1 1-1.39-.562l1.876-4.646A1 1 0 0 0 8 10.95V8.662a1 1 0 0 0-.593-.914L4.438 6.427a.739.739 0 0 1-.373-.983.761.761 0 0 1 1-.38l3.918 1.744a2.5 2.5 0 0 0 2.034 0l3.918-1.744a.761.761 0 0 1 1 .38.739.739 0 0 1-.373.983l-2.969 1.321a1 1 0 0 0-.593.914v.545a5.48 5.48 0 0 1 1-.185v-.36l2.968-1.322a1.74 1.74 0 0 0 .877-2.31 1.761 1.761 0 0 0-2.317-.88l-2.097.934a2.5 2.5 0 0 0-2.43-3.086ZM18 14.5a4.5 4.5 0 1 1-9 0 4.5 4.5 0 0 1 9 0Zm-2.146-1.854a.5.5 0 0 0-.708 0L12.5 15.293l-.646-.647a.5.5 0 0 0-.708.708l1 1a.5.5 0 0 0 .708 0l3-3a.5.5 0 0 0 0-.708Z" fill="#212121"/>
</svg>
